X:1
T:Lieder, Op.125
T:Auf den Schwingen der Nacht
T:Dem Dichter zu eigen
T:Lieder, Op.125
T:1. Auf den Schwingen der Nacht
T:Luise Greger 
T:Gottfried Hertel 
T:OpenScore (CC0)
T:OpenScore (CC0)
T:OpenScore (CC0)
C:Luise Greger
Z:Gottfried Hertel
Z:OpenScore (CC0)
%%score 1 { ( 2 5 ) | ( 3 4 ) }
L:1/8
Q:1/4=92
M:6/4
K:Db
V:1 treble nm="Gesang\nVoice"
V:2 treble nm="Klavier\nPiano"
V:5 treble 
V:3 bass 
V:4 bass 
V:1
"^Schwebend, nicht schnell\n" z12 | z12 | z2 z!mp! F2 F A2 A3 A | B6- B3 G G A | B6 A4 G2 | %5
w: ||Auf den Schwin- gen der|Nacht _ trägt mich die|Sehn- sucht zu|
 c6- c4 z2 |!mf! d2 B2 G2 F2 F A !tenuto!.E2 |!<(! d2 B2 G2 c2 c d e2!<)! | z12 | z12 | %10
w: dir. _|Ob ein Ver- lan- gen nach mir|in dei- ner See- le er- wacht?|||
 z4 z2 z2!p! D2 D2 |!mp! _F6 E4 D2 |!<(! A6-!<)!!>(! A4!>)! z2 | z2 z!f! G G A B2 A2 G2 | %14
w: Auf den|Schwin- gen der|Nacht _|trägt mich die Sehn- sucht zu|
!<(! c12-!<)! | c4 z2 z4 !fermata!z2 ||[M:4/4][Q:1/4=96] F2 =G2 B2 d d | c8- | c2 z2 z!<(! c c c | %19
w: dir.|_|Stern steht dro- ben bei|Stern,|_ und wie mich|
 e4!<)! A2 B2 | c4 z!<(! c c c | c3!<)!!>(! =G G4!>)! | =G2 G G G3 G | B4 z4 | z8 | z8 | z8 || %27
w: trö- stet ihr|Licht, seh’ ich dein|An- ge- sicht|lie- ben- den Aug’s von|fern.||||
[M:6/4][Q:1/4=92] z4 z2 z2!p!!<(! D2 D2!<)! |!>(! _F6 E4 D2!>)! |!<(! A12!<)! | %30
w: Auf den|Schwin- gen der|Nacht|
 z2!f!!>(! __B4 B4 B2!>)! |!mf!!>(! _B6 !breath!A4 A2!>)! |!mp!!>(! [df]12-!>)! | %33
w: trägt mich die|Sehn- sucht zu|dir.|
[Q:1/4=88] [df]6[Q:1/4=80] z4[Q:1/4=70] z2 | z12 |] %35
w: _||
V:2
!p! (F,A,DFAf edAFED) |!pp!!<(! (_F,__B,D_F__B_f edBFED)!<)! |!p! (=F,A,D=FAf edAFED) | %3
!<(! (G,B,DGBg feBGEB,) | (G,B,EGBb geBGFE)!<)! | (CGAcac'!<(! bgcBAE)!<)! | %6
!mf! dDBDGD!>(! FA,FAEC!>)! |!<(! dDBDGD cCA[Dd][Ge]A!<)! |!p! fFcff'e' d'bfdcB | %9
!>(! GBdbgB fcFAEA,!>)! |!pp! (F,A,DEFf edAFED) |!<(! (_F,__B,D_F__B_f!<)!!>(! edBFED)!>)! | %12
!<(! (=F,A,D=FA=f edAFED)!<)! |!mp!!<(! (B,DGBda gdBGED)!<)! |!<(! (C=E=Gc=ec'!<)!!>(! =gecGEC) | %15
 (=ec=G=EC=G,)!>)! z4 !fermata!z2 ||[M:4/4]!mp! [CF]2!<(! [D=G]2 B2 AG!<)! | %17
!<(! c6!<)!!>(! c2!>)! | c6 c2 | [Ae]4 [FA]2 [=GB]2 |!<(! [Ac]8 | [=Gc=g]8!<)! | %22
!>(! [B,=D=G]4 [CG]2 [EG]2!>)! |!mf!!<(! [_DB]4!<)! e[Bb] [Bb]2 |!>(! b3 [ee']!>)! [ee']4 | %25
"_abnehmen" z2 (3((B,DE)) [Bb]>[dg] [dg]2 | [ca]3 [ee'] [ee']4 || %27
[M:6/4]!pp!!<(! (F,A,DFAf!<)!!>(! edAFED)!>)! |!p!!<(! (_F,__B,D_F__B_f!<)!!>(! edBFED)!>)! | %29
 (=F,A,D=FA=f edAFED) |!mf!!<(! (_F,__B,D_F__B_f!<)! dBFDB,F,) |!<(! (G,B,EGBg) (G,CEAca)!<)! | %32
!pp! (F,A,DEFA!<(! defad'e')!<)! |!>(!"_rit." (f'e'd'afe) d6-!>)! | d6 z4 z2 |] %35
V:3
!ped! A,,6 D,4 F,2!ped-up! | __B,,6 D,4 E,_F, | A,,6 D,6 | B,,6 E,4 G,2 | B,,6 E,2 F,2 G,2 | %5
 E,6 A,2 B,2 C2 | B,2 G,2 E,2 G,4 A,2 | B,2 G,2 E,2 G,3 F, C,2 | =A,,2 F,2 C2 B,,2 F,2 D2 | %9
 D4 B,2 G,4 C2 |!ped! [D,,A,,]12!ped-up! | __B,,6 D,6 | A,,6 D,6 | D,4 G,2 B,4 D,2 | =E,6 B,6- | %15
 B,6 C,4 !fermata!z2 ||[M:4/4] A,2 B,2 D2 CB, | A,2 B,2 D2 CB, | [F,A,]4 =E,4 | [_E,C]4 [E,D]4 | %20
 [A,E]8 | [=G,=E]8 | [F,=G,]4 [_E,G,]2 [C,G,]2 |!ped! (3(E,,B,,D,) (3(=G,B,D) E4 | =G8 | %25
!mp!!ped! (3(A,,!ped-up!E,G,)[I:staff -1] (3B,DE- [E_G]4 |!ped! [A,G]8!ped-up! || %27
[M:6/4]!ped![I:staff +1] [D,,A,,]12!ped-up! | [D,,__B,,]12 | [D,,A,,]12 | [__B,,,__B,,]12 | %31
 [A,,,A,,]6 [A,,,A,,]6 |!ped! [D,,,D,,-]6 A,,6-!ped-up! |!ped! D,6- (D,E,F,A,DE)!ped-up! | %34
 F6 z4 z2 |] %35
V:4
 D,,12 | D,,12 | D,,12 | D,,12 | E,,12 | A,,12 | B,,6 C,6 | B,,6 A,,6 | x12 | E,6 A,,6 | x12 | %11
 D,,12 | D,,12 | G,,12 | =G,,12- | G,,6 x6 ||[M:4/4] F,4 F,4 | F,8- | x8 | x8 | x8 | x8 | x8 | x8 | %24
 x8 | x8 | x8 ||[M:6/4] x12 | x12 | x12 | x12 | x12 | x6 D,,6 | A,,6 x6 | x12 |] %35
V:5
 x12 | x12 | x12 | x12 | x12 | x12 | x12 | x12 | x12 | x12 | x12 | x12 | x12 | x12 | x12 | x12 || %16
[M:4/4] x4 =E4 | F2 =G2 B2 AG | F4!<(! =G4 | x4!<)! x4 | x8 | x8 | x8 | x8 | x8 | x8 | x8 || %27
[M:6/4] x12 | x12 | x12 | x12 | x12 | x12 | x12 | x12 |] %35

